COLOR/action 16/16/connector-ignore.svg

<svg height="16" width="16" xmlns="http://www.w3.org/2000/svg"><g stroke-width=".9375"><path d="m1.4375 1.375c-.9375 0-.9375.9375-.9375.9375v.9375c0 .9375.9375.9375.9375.9375h3.75l1.1279296 1.875h-3.0029296v3.75h5.2587893l1.4172357 2.356568c-.110397.229668-.113525.455932-.113525.455932v.9375c0 .9375.9375.9375.9375.9375h3.75c.9375 0 .9375-.9375.9375-.9375v-.9375c0-.9375-.9375-.9375-.9375-.9375h-3.75l-1.127929-1.875h3.002929v-3.75h-5.26062l-1.4154055-2.3529052c.1121497-.2309184.1135255-.4595948.1135255-.4595948v-.9375c0-.9375-.9375-.9375-.9375-.9375zm2.8125 5.625h2.6293946l1.1279291 1.875h-3.7573237zm3.7408448 0h3.7591552v1.875h-2.629395z" fill="#c43ac4"/><path d="m1.4375 1.375c-.9375 0-.9375.9375-.9375.9375v.5s0-.9375.9375-.9375h3.75s.9375 0 .9375.9375v-.5c0-.9375-.9375-.9375-.9375-.9375zm4.6738281 2.5c-.0124837.0881628-.03662.2042881-.0996093.3339844l1.4160156 2.3535156h5.2597656v-.5h-5.2597656zm-2.7988281 2.1875v.5h3.0019531l-.3007812-.5zm4.6777344 1.4375 1.1308594 1.875h2.6289062v-.5h-2.6289062l-.8300782-1.375zm-3.7402344 1.375v.5h3.7578125l-.3007813-.5zm5.4355469 1.4375 1.1269531 1.875h3.75s.9375 0 .9375.9375v-.5c0-.9375-.9375-.9375-.9375-.9375h-3.75l-.8261719-1.375zm.203125 2.191406c-.0091127.06458-.0136719.121094-.0136719.121094v.5s.0028843-.22541.1132812-.455078z" fill="#fff" opacity=".3"/><path d="m.5 2.75v.5c0 .9375.9375.9375.9375.9375h3.75l.8261719 1.375h.3007812l-1.1269531-1.875h-3.75s-.9375 0-.9375-.9375zm5.625 0s-.0011316.228066-.1132812.4589844l.0996093.1660156c.009743-.0688072.0136719-.125.0136719-.125zm-1.875 3.75v.5h2.6289062l.828125 1.375h.3007813l-1.1289063-1.875zm3.7402344 0 .3007812.5h3.4589844v-.5zm-4.6777344 2.8125v.5h5.2597656l1.3164063 2.191406c.0123385-.08744.0361101-.201881.0996093-.333984l-1.4160156-2.357422zm6.3730469 0 .3007812.5h2.7011719v-.5zm.1894531 3.75v.5c0 .9375.9375.9375.9375.9375h3.75c.9375 0 .9375-.9375.9375-.9375v-.5s0 .9375-.9375.9375h-3.75s-.9375 0-.9375-.9375z" opacity=".2"/></g></svg>

<?xml version="1.0" encoding="UTF-8" standalone="no"?>
<svg
   xmlns:dc="http://purl.org/dc/elements/1.1/"
   xmlns:cc="http://creativecommons.org/ns#"
   xmlns:rdf="http://www.w3.org/1999/02/22-rdf-syntax-ns#"
   xmlns:svg="http://www.w3.org/2000/svg"
   xmlns="http://www.w3.org/2000/svg"
   xmlns:sodipodi="http://sodipodi.sourceforge.net/DTD/sodipodi-0.dtd"
   xmlns:inkscape="http://www.inkscape.org/namespaces/inkscape"
   height="16"
   width="16"
   version="1.1"
   id="svg4"
   sodipodi:docname="connector-ignore.svg"
   inkscape:version="0.92.4 (5da689c313, 2019-01-14)">
  <metadata
     id="metadata10">
    <rdf:RDF>
      <cc:Work
         rdf:about="">
        <dc:format>image/svg+xml</dc:format>
        <dc:type
           rdf:resource="http://purl.org/dc/dcmitype/StillImage" />
        <dc:title></dc:title>
      </cc:Work>
    </rdf:RDF>
  </metadata>
  <defs
     id="defs8" />
  <sodipodi:namedview
     pagecolor="#ffffff"
     bordercolor="#666666"
     borderopacity="1"
     objecttolerance="10"
     gridtolerance="10"
     guidetolerance="10"
     inkscape:pageopacity="0"
     inkscape:pageshadow="2"
     inkscape:window-width="1920"
     inkscape:window-height="1016"
     id="namedview6"
     showgrid="false"
     inkscape:zoom="47.942857"
     inkscape:cx="11"
     inkscape:cy="7.4126937"
     inkscape:window-x="0"
     inkscape:window-y="27"
     inkscape:window-maximized="1"
     inkscape:current-layer="svg4" />
  <path
     d="M 1.4375,1.375 C 0.5,1.375 0.5,2.3125 0.5,2.3125 V 3.25 c 0,0.9375 0.9375,0.9375 0.9375,0.9375 h 3.75 l 1.1279296,1.875 H 3.3125 v 3.75 H 8.5712893 L 9.988525,12.169068 C 9.878128,12.398736 9.875,12.625 9.875,12.625 v 0.9375 c 0,0.9375 0.9375,0.9375 0.9375,0.9375 h 3.75 C 15.5,14.5 15.5,13.5625 15.5,13.5625 V 12.625 c 0,-0.9375 -0.9375,-0.9375 -0.9375,-0.9375 h -3.75 L 9.684571,9.8125 H 12.6875 v -3.75 H 7.42688 L 6.0114745,3.7095948 C 6.1236242,3.4786764 6.125,3.25 6.125,3.25 V 2.3125 C 6.125,1.375 5.1875,1.375 5.1875,1.375 Z M 4.25,7 H 6.8793946 L 8.0073237,8.875 H 4.25 Z M 7.9908448,7 H 11.75 V 8.875 H 9.120605 Z"
     id="path2"
     inkscape:connector-curvature="0"
     style="fill:#c43ac4;stroke-width:0.9375" />
  <path
     style="fill:#ffffff;stroke-width:0.9375;fill-opacity:1;opacity:0.3"
     d="M 1.4375 1.375 C 0.5 1.375 0.5 2.3125 0.5 2.3125 L 0.5 2.8125 C 0.5 2.8125 0.5 1.875 1.4375 1.875 L 5.1875 1.875 C 5.1875 1.875 6.125 1.875 6.125 2.8125 L 6.125 2.3125 C 6.125 1.375 5.1875 1.375 5.1875 1.375 L 1.4375 1.375 z M 6.1113281 3.875 C 6.0988444 3.9631628 6.0747081 4.0792881 6.0117188 4.2089844 L 7.4277344 6.5625 L 12.6875 6.5625 L 12.6875 6.0625 L 7.4277344 6.0625 L 6.1113281 3.875 z M 3.3125 6.0625 L 3.3125 6.5625 L 6.3144531 6.5625 L 6.0136719 6.0625 L 3.3125 6.0625 z M 7.9902344 7.5 L 9.1210938 9.375 L 11.75 9.375 L 11.75 8.875 L 9.1210938 8.875 L 8.2910156 7.5 L 7.9902344 7.5 z M 4.25 8.875 L 4.25 9.375 L 8.0078125 9.375 L 7.7070312 8.875 L 4.25 8.875 z M 9.6855469 10.3125 L 10.8125 12.1875 L 14.5625 12.1875 C 14.5625 12.1875 15.5 12.1875 15.5 13.125 L 15.5 12.625 C 15.5 11.6875 14.5625 11.6875 14.5625 11.6875 L 10.8125 11.6875 L 9.9863281 10.3125 L 9.6855469 10.3125 z M 9.8886719 12.503906 C 9.8795592 12.568486 9.875 12.625 9.875 12.625 L 9.875 13.125 C 9.875 13.125 9.8778843 12.89959 9.9882812 12.669922 L 9.8886719 12.503906 z "
     id="path817" />
  <path
     style="fill:#000000;stroke-width:0.9375;fill-opacity:1;opacity:0.2"
     d="M 0.5 2.75 L 0.5 3.25 C 0.5 4.1875 1.4375 4.1875 1.4375 4.1875 L 5.1875 4.1875 L 6.0136719 5.5625 L 6.3144531 5.5625 L 5.1875 3.6875 L 1.4375 3.6875 C 1.4375 3.6875 0.5 3.6875 0.5 2.75 z M 6.125 2.75 C 6.125 2.75 6.1238684 2.978066 6.0117188 3.2089844 L 6.1113281 3.375 C 6.1210711 3.3061928 6.125 3.25 6.125 3.25 L 6.125 2.75 z M 4.25 6.5 L 4.25 7 L 6.8789062 7 L 7.7070312 8.375 L 8.0078125 8.375 L 6.8789062 6.5 L 4.25 6.5 z M 7.9902344 6.5 L 8.2910156 7 L 11.75 7 L 11.75 6.5 L 7.9902344 6.5 z M 3.3125 9.3125 L 3.3125 9.8125 L 8.5722656 9.8125 L 9.8886719 12.003906 C 9.9010104 11.916466 9.924782 11.802025 9.9882812 11.669922 L 8.5722656 9.3125 L 3.3125 9.3125 z M 9.6855469 9.3125 L 9.9863281 9.8125 L 12.6875 9.8125 L 12.6875 9.3125 L 9.6855469 9.3125 z M 9.875 13.0625 L 9.875 13.5625 C 9.875 14.5 10.8125 14.5 10.8125 14.5 L 14.5625 14.5 C 15.5 14.5 15.5 13.5625 15.5 13.5625 L 15.5 13.0625 C 15.5 13.0625 15.5 14 14.5625 14 L 10.8125 14 C 10.8125 14 9.875 14 9.875 13.0625 z "
     id="path822" />
</svg>
